X:3
T:Frailach No. 10                                                                                   
M:4/4                                                                                               
L:1/8                                                                                               
K:Dm                                                                                                
A,-DFD D-FAF|G2G-F G-AF2|F-AcA F-AcF|G2G-F G-AF2|\                                                  
F-GG-F F-E E-D|D4 D-GF2|                                                                            
F-GG-F F-EE-D|1 D4 z2 A,2:|2 D4 z2 A2||\                                                            
d6 cB|A6-A2| dAdA d2 cB|                                                                            
A6-A2|d6-c2 e6-d2|dAdA d2cB|\                                                                       
A4 z2 A2|FGAB ABAB|ABAB A2G2|                                                                       
G-DD-G G-DD-G| G-DDG GF|F-GG-F F-EE-D|D4 D-BAG|F-GG-F F-EE-D|1 D6 A2 :|2 D6 z2 ||
